app/client/src/assets/icons/blueprintjs/16px/prescription.svg

<svg xmlns="http://www.w3.org/2000/svg" xml:space="preserve" viewBox="0 0 16 16"><path d="M10.91 8.34c.14-.21.36-.34.63-.34h1.29c.22 0 .41.07.52.26.09.16.08.33-.04.53l-2.49 2.87 2.77 3.54c.12.17.14.37.02.55-.11.17-.3.25-.5.25h-1.44a.69.69 0 0 1-.61-.35L9.4 13.51l-1.69 2.15c-.13.21-.36.34-.63.34H5.8c-.22 0-.41-.07-.52-.26-.09-.16-.08-.33.04-.53l2.71-3.48L4.3 6.99H3.03v3.47c0 .33-.26.56-.62.56h-.8c-.35-.01-.61-.23-.61-.56V.56c0-.33.26-.56.62-.56h3.11c.62 0 1.19.08 1.7.24.51.16.96.39 1.34.69a3.194 3.194 0 0 1 1.21 2.53c0 .81-.25 1.5-.74 2.08-.37.44-.84.77-1.42 1.01L7.88 7.9c.04.04.07.08.08.1l1.49 1.9 1.46-1.56zM5.18 5c.62 0 1.08-.13 1.39-.37.29-.23.44-.71.44-1.16s-.15-.87-.44-1.1C6.26 2.12 5.8 2 5.18 2H2.99v3h2.19z"/></svg>

<?xml version="1.0" encoding="utf-8"?>
<!-- Generator: Adobe Illustrator 18.0.0, SVG Export Plug-In . SVG Version: 6.00 Build 0)  -->
<svg version="1.1" id="Layer_1" xmlns="http://www.w3.org/2000/svg" xmlns:xlink="http://www.w3.org/1999/xlink" x="0px" y="0px"
	 viewBox="0 0 16 16" enable-background="new 0 0 16 16" xml:space="preserve">
<g id="prescription_2_">
	<path id="Combined-Shape_8_" d="M10.91,8.34c0.14-0.21,0.36-0.34,0.63-0.34h1.29c0.22,0,0.41,0.07,0.52,0.26
		c0.09,0.16,0.08,0.33-0.04,0.53l-2.49,2.87l2.77,3.54c0.12,0.17,0.14,0.37,0.02,0.55c-0.11,0.17-0.3,0.25-0.5,0.25h-1.44
		c-0.27,0-0.49-0.14-0.61-0.35l-1.66-2.14l-1.69,2.15C7.58,15.87,7.35,16,7.08,16H5.8c-0.22,0-0.41-0.07-0.52-0.26
		c-0.09-0.16-0.08-0.33,0.04-0.53l2.71-3.48L4.3,6.99H3.03v3.47c0,0.33-0.26,0.56-0.62,0.56h-0.8C1.26,11.01,1,10.79,1,10.46v-9.9
		C1,0.23,1.26,0,1.62,0h3.11c0.62,0,1.19,0.08,1.7,0.24C6.94,0.4,7.39,0.63,7.77,0.93c0.38,0.3,0.68,0.68,0.89,1.11
		c0.21,0.43,0.32,0.91,0.32,1.42c0,0.81-0.25,1.5-0.74,2.08C7.87,5.98,7.4,6.31,6.82,6.55L7.88,7.9C7.92,7.94,7.95,7.98,7.96,8
		l1.49,1.9L10.91,8.34z M5.18,5C5.8,5,6.26,4.87,6.57,4.63C6.86,4.4,7.01,3.92,7.01,3.47s-0.15-0.87-0.44-1.1
		C6.26,2.12,5.8,2,5.18,2H2.99v3H5.18z"/>
</g>
</svg>
